X: 40739
T: Toss The Feathers
R: reel
M: 4/4
K: Dmixolydian
|:D2 (3FED AD FD|ABcA GE E2|D2 (3FED AD FD|dfed cAGE|
D2 (3FED AD FD|ABcA GE E2|cABG A2 AB|cd ed cAGE:|
|:Ad d2 Ad d2|Ad d2 ed^cd|eaag a3g|eaag ed^cd|
efge afge|dfed ^cAAB|=cABG A2AB|cded cAGE:|

